Yosa-Max-Dark/places/16x16/folder-important.svg

<?xml version="1.0" encoding="UTF-8"?>
<svg id="svg6" version="1.1" viewBox="0 0 16 16" xmlns="http://www.w3.org/2000/svg">
 <defs id="defs3051">
  <style id="current-color-scheme" type="text/css">.ColorScheme-Text {
        color:#dfdfdf;
      }</style>
  <style id="current-color-scheme-5" type="text/css">.ColorScheme-Text {
        color:#dfdfdf;
      }</style>
  <style id="current-color-scheme-35" type="text/css">.ColorScheme-Text {
        color:#000000;
      }</style>
  <style id="current-color-scheme-3" type="text/css">.ColorScheme-Text {
        color:#000000;
      }</style>
  <style id="current-color-scheme-9" type="text/css">.ColorScheme-Text {
        color:#000000;
      }</style>
  <style id="current-color-scheme-3-3" type="text/css">.ColorScheme-Text {
        color:#000000;
      }</style>
  <style id="current-color-scheme-2" type="text/css">.ColorScheme-Text {
        color:#000000;
      }</style>
  <style id="current-color-scheme-0" type="text/css">.ColorScheme-Text { color:#5c616c; } .ColorScheme-Highlight { color:#5294e2; } .ColorScheme-ButtonBackground { color:#d3dae3; }</style>
  <style id="current-color-scheme-37" type="text/css">.ColorScheme-Text { color:#5c616c; } .ColorScheme-Highlight { color:#5294e2; } .ColorScheme-ButtonBackground { color:#d3dae3; }</style>
  <style id="current-color-scheme-3-5" type="text/css">.ColorScheme-Text { color:#5c616c; } .ColorScheme-Highlight { color:#5294e2; } .ColorScheme-ButtonBackground { color:#d3dae3; }</style>
  <style id="current-color-scheme-6" type="text/css">.ColorScheme-Text { color:#5c616c; } .ColorScheme-Highlight { color:#5294e2; } .ColorScheme-ButtonBackground { color:#d3dae3; }</style>
 </defs>
 <path id="path827" d="m8 0c-4.4182775 0-8 3.5817219-8 8 0 4.418278 3.5817225 8 8 8 4.418278 0 8-3.581723 8-8 0-4.4182781-3.581722-8-8-8zm-0.75 3h1.5v6h-1.5v-6zm0 8h1.5v2h-1.5v-2z" style="fill:#dfdfdf"/>
</svg>

<?xml version="1.0" encoding="UTF-8" standalone="no"?>
<svg
   xmlns:dc="http://purl.org/dc/elements/1.1/"
   xmlns:cc="http://creativecommons.org/ns#"
   xmlns:rdf="http://www.w3.org/1999/02/22-rdf-syntax-ns#"
   xmlns:svg="http://www.w3.org/2000/svg"
   xmlns="http://www.w3.org/2000/svg"
   xmlns:sodipodi="http://sodipodi.sourceforge.net/DTD/sodipodi-0.dtd"
   xmlns:inkscape="http://www.inkscape.org/namespaces/inkscape"
   viewBox="0 0 16 16"
   version="1.1"
   id="svg6"
   sodipodi:docname="folder-important.svg"
   inkscape:version="0.92.4 (unknown)">
  <sodipodi:namedview
     pagecolor="#ffffff"
     bordercolor="#666666"
     borderopacity="1"
     objecttolerance="10"
     gridtolerance="10"
     guidetolerance="10"
     inkscape:pageopacity="0"
     inkscape:pageshadow="2"
     inkscape:window-width="1366"
     inkscape:window-height="709"
     id="namedview10"
     showgrid="false"
     inkscape:zoom="11.247417"
     inkscape:cx="-10.064351"
     inkscape:cy="-2.6996226"
     inkscape:window-x="0"
     inkscape:window-y="0"
     inkscape:window-maximized="1"
     inkscape:current-layer="svg6" />
  <metadata
     id="metadata10">
    <rdf:RDF>
      <cc:Work
         rdf:about="">
        <dc:format>image/svg+xml</dc:format>
        <dc:type
           rdf:resource="http://purl.org/dc/dcmitype/StillImage" />
        <dc:title />
      </cc:Work>
    </rdf:RDF>
  </metadata>
  <defs
     id="defs3051">
    <style
       type="text/css"
       id="current-color-scheme">
      .ColorScheme-Text {
        color:#dfdfdf;
      }
      </style>
    <style
       id="current-color-scheme-5"
       type="text/css">
      .ColorScheme-Text {
        color:#dfdfdf;
      }
      </style>
    <style
       type="text/css"
       id="current-color-scheme-35">
      .ColorScheme-Text {
        color:#000000;
      }
      </style>
    <style
       id="current-color-scheme-3"
       type="text/css">
      .ColorScheme-Text {
        color:#000000;
      }
      </style>
    <style
       id="current-color-scheme-9"
       type="text/css">
      .ColorScheme-Text {
        color:#000000;
      }
      </style>
    <style
       type="text/css"
       id="current-color-scheme-3-3">
      .ColorScheme-Text {
        color:#000000;
      }
      </style>
    <style
       type="text/css"
       id="current-color-scheme-2">
      .ColorScheme-Text {
        color:#000000;
      }
      </style>
    <style
       id="current-color-scheme-0"
       type="text/css">
   .ColorScheme-Text { color:#5c616c; } .ColorScheme-Highlight { color:#5294e2; } .ColorScheme-ButtonBackground { color:#d3dae3; }
  </style>
    <style
       id="current-color-scheme-37"
       type="text/css">
   .ColorScheme-Text { color:#5c616c; } .ColorScheme-Highlight { color:#5294e2; } .ColorScheme-ButtonBackground { color:#d3dae3; }
  </style>
    <style
       type="text/css"
       id="current-color-scheme-3-5">
   .ColorScheme-Text { color:#5c616c; } .ColorScheme-Highlight { color:#5294e2; } .ColorScheme-ButtonBackground { color:#d3dae3; }
  </style>
    <style
       type="text/css"
       id="current-color-scheme-6">
   .ColorScheme-Text { color:#5c616c; } .ColorScheme-Highlight { color:#5294e2; } .ColorScheme-ButtonBackground { color:#d3dae3; }
  </style>
  </defs>
  <path
     style="fill:#dfdfdf;fill-rule:nonzero;stroke:none;stroke-width:1.14285707;fill-opacity:1"
     d="M 8 0 C 3.5817225 0 0 3.5817219 0 8 C 0 12.418278 3.5817225 16 8 16 C 12.418278 16 16 12.418277 16 8 C 16 3.5817219 12.418278 0 8 0 z M 7.25 3 L 8.75 3 L 8.75 9 L 7.25 9 L 7.25 3 z M 7.25 11 L 8.75 11 L 8.75 13 L 7.25 13 L 7.25 11 z "
     id="path827" />
</svg>
